flaticon/stationery/paper-1.svg

<svg xmlns="http://www.w3.org/2000/svg" width="32" height="32" viewBox="0 0 24 24">
    <path d="M 23.796875 6.242188 L 15.671875 0.101562 C 15.582031 0.0351562 15.472656 0 15.363281 0 L 0.511719 0 C 0.230469 0 0 0.230469 0 0.511719 L 0 23.488281 C 0 23.769531 0.230469 24 0.511719 24 L 23.488281 24 C 23.769531 24 24 23.769531 24 23.488281 L 24 6.652344 C 24 6.492188 23.925781 6.339844 23.796875 6.242188 Z M 21.964844 6.140625 L 15.875 6.140625 L 15.875 1.535156 Z M 1.019531 22.980469 L 1.019531 1.019531 L 14.851562 1.019531 L 14.851562 6.652344 C 14.851562 6.933594 15.082031 7.160156 15.363281 7.160156 L 22.980469 7.160156 L 22.980469 22.980469 Z M 1.019531 22.980469"/>
    <path d="M4.640625 9.84375L19.359375 9.84375 19.359375 10.867188 4.640625 10.867188zM4.640625 14.351562L19.359375 14.351562 19.359375 15.375 4.640625 15.375zM4.640625 18.859375L19.359375 18.859375 19.359375 19.882812 4.640625 19.882812zM4.640625 18.859375"/>
</svg>

<svg xmlns="http://www.w3.org/2000/svg" width="32" height="32" viewBox="0 0 24 24">
    <path d="M23.797 6.242L15.672.102A.521.521 0 0 0 15.363 0H.512A.513.513 0 0 0 0 .512v22.976c0 .282.23.512.512.512h22.976c.282 0 .512-.23.512-.512V6.652a.514.514 0 0 0-.203-.41zm-1.832-.101h-6.09V1.535zM1.02 22.98V1.02h13.832v5.632c0 .282.23.508.511.508h7.617v15.82zm0 0"/>
    <path d="M4.64 9.844h14.72v1.023H4.64zm0 0M4.64 14.352h14.72v1.023H4.64zm0 0M4.64 18.86h14.72v1.023H4.64zm0 0"/>
</svg>
